assets/svg/field-type-bendy-sinister-unselected.svg

<?xml version="1.0" encoding="UTF-8" standalone="no"?>
<svg preserveAspectRatio="xMidYMin slice" version="1.1" viewBox="0 0 120 200" xmlns:xlink="http://www.w3.org/1999/xlink" xmlns="http://www.w3.org/2000/svg"><g transform="translate(10,10)"><g filter="url(#shadow)"><defs><filter height="200%" id="shadow" width="200%" x="-20%" y="-20%"><feOffset dx="0.2" dy="0.2" in="SourceAlpha" result="offsetOut" /><feGaussianBlur in="offsetOut" result="blurOut" std-deviation="1" /><feBlend in2="blurOut" in="SourceGraphic" mode="normal" /></filter><pattern height="20" id="void" patternUnits="userSpaceOnUse" width="20"><rect fill="#fff" height="20" width="20" x="0" y="0" /><rect fill="#ddd" height="10" width="10" x="0" y="0" /><rect fill="#ddd" height="10" width="10" x="10" y="10" /></pattern><pattern height="4" id="selected" patternUnits="userSpaceOnUse" width="4"><rect fill="#f5f5f5" height="4" width="4" x="0" y="0" /><g fill="#000"><circle cx="0" cy="0" r="0.3" /><circle cx="4" cy="0" r="0.3" /><circle cx="0" cy="4" r="0.3" /><circle cx="4" cy="4" r="0.3" /><circle cx="2" cy="2" r="0.3" /></g></pattern><pattern height="20" id="ermine" patternUnits="userSpaceOnUse" width="12.5" x="-3.125" y="-5"><rect fill="#f6f6f6" height="20" width="12.5" x="0" y="0" /><g fill="#333333"><path d="M 47.757634,0 C 60.324696,15.689314 25.136924,21.898666 44.167046,36.607392
    52.24587,41.673746 71.273896,30.723464 54.57765,17.322176
    52.423302,16.178163 62.11999,8.3349512 47.757634,0 Z m 21.182372,36.935142 c
    -3.23154,0.326846 -6.282816,2.290268 -9.155302,7.193166 -3.590588,8.33495
    12.209402,22.716724 22.98117,5.06625 C 83.483996,47.069952 94.0755,53.93163
    100,39.386326 89.946316,49.845864 79.713166,37.425428 70.377642,36.935142 Z
    M 29.80469,37.099022 C 20.469164,37.58931 10.053647,50.173186 0,39.55021
    5.9244804,54.095512 16.51881,47.070414 17.416458,49.358438 28.0087,67.008916
    43.805884,52.627142 40.215296,44.292192 36.983772,38.73555 33.395278,36.9356
    29.80469,37.099026 Z m 21.003542,10.13249 c -8.25835,37.262136
    -23.51556,63.576958 -40.211787,82.534868 7.001653,-1.96117
    14.718613,-7.19213 22.258843,-11.93164 -4.667764,9.80582 -9.154602,18.14082
    -13.822364,26.80264 2.692942,-0.98059 11.489886,-9.64435 23.338826,-22.3919
    1.795296,17.48703 4.305204,25.8241 8.07532,37.75452 3.052012,-11.93042
    5.208468,-19.9411 7.54234,-37.9184 7.181178,8.00805 14.001888,16.17984
    23.696484,23.04393 L 68.221186,117.34659 c 7.001634,4.41265
    14.72282,10.29262 22.083522,12.74406 C 72.710832,110.15215
    57.989412,84.493648 50.808232,47.231516 Z" transform="scale(0.0625,0.0625)" /><path d="M 47.757634,0 C 60.324696,15.689314 25.136924,21.898666 44.167046,36.607392
    52.24587,41.673746 71.273896,30.723464 54.57765,17.322176
    52.423302,16.178163 62.11999,8.3349512 47.757634,0 Z m 21.182372,36.935142 c
    -3.23154,0.326846 -6.282816,2.290268 -9.155302,7.193166 -3.590588,8.33495
    12.209402,22.716724 22.98117,5.06625 C 83.483996,47.069952 94.0755,53.93163
    100,39.386326 89.946316,49.845864 79.713166,37.425428 70.377642,36.935142 Z
    M 29.80469,37.099022 C 20.469164,37.58931 10.053647,50.173186 0,39.55021
    5.9244804,54.095512 16.51881,47.070414 17.416458,49.358438 28.0087,67.008916
    43.805884,52.627142 40.215296,44.292192 36.983772,38.73555 33.395278,36.9356
    29.80469,37.099026 Z m 21.003542,10.13249 c -8.25835,37.262136
    -23.51556,63.576958 -40.211787,82.534868 7.001653,-1.96117
    14.718613,-7.19213 22.258843,-11.93164 -4.667764,9.80582 -9.154602,18.14082
    -13.822364,26.80264 2.692942,-0.98059 11.489886,-9.64435 23.338826,-22.3919
    1.795296,17.48703 4.305204,25.8241 8.07532,37.75452 3.052012,-11.93042
    5.208468,-19.9411 7.54234,-37.9184 7.181178,8.00805 14.001888,16.17984
    23.696484,23.04393 L 68.221186,117.34659 c 7.001634,4.41265
    14.72282,10.29262 22.083522,12.74406 C 72.710832,110.15215
    57.989412,84.493648 50.808232,47.231516 Z" transform="translate(6.25,10) scale(0.0625,0.0625)" /></g></pattern><pattern height="20" id="ermines" patternUnits="userSpaceOnUse" width="12.5" x="-3.125" y="-5"><rect fill="#333333" height="20" width="12.5" x="0" y="0" /><g fill="#f6f6f6"><path d="M 47.757634,0 C 60.324696,15.689314 25.136924,21.898666 44.167046,36.607392
    52.24587,41.673746 71.273896,30.723464 54.57765,17.322176
    52.423302,16.178163 62.11999,8.3349512 47.757634,0 Z m 21.182372,36.935142 c
    -3.23154,0.326846 -6.282816,2.290268 -9.155302,7.193166 -3.590588,8.33495
    12.209402,22.716724 22.98117,5.06625 C 83.483996,47.069952 94.0755,53.93163
    100,39.386326 89.946316,49.845864 79.713166,37.425428 70.377642,36.935142 Z
    M 29.80469,37.099022 C 20.469164,37.58931 10.053647,50.173186 0,39.55021
    5.9244804,54.095512 16.51881,47.070414 17.416458,49.358438 28.0087,67.008916
    43.805884,52.627142 40.215296,44.292192 36.983772,38.73555 33.395278,36.9356
    29.80469,37.099026 Z m 21.003542,10.13249 c -8.25835,37.262136
    -23.51556,63.576958 -40.211787,82.534868 7.001653,-1.96117
    14.718613,-7.19213 22.258843,-11.93164 -4.667764,9.80582 -9.154602,18.14082
    -13.822364,26.80264 2.692942,-0.98059 11.489886,-9.64435 23.338826,-22.3919
    1.795296,17.48703 4.305204,25.8241 8.07532,37.75452 3.052012,-11.93042
    5.208468,-19.9411 7.54234,-37.9184 7.181178,8.00805 14.001888,16.17984
    23.696484,23.04393 L 68.221186,117.34659 c 7.001634,4.41265
    14.72282,10.29262 22.083522,12.74406 C 72.710832,110.15215
    57.989412,84.493648 50.808232,47.231516 Z" transform="scale(0.0625,0.0625)" /><path d="M 47.757634,0 C 60.324696,15.689314 25.136924,21.898666 44.167046,36.607392
    52.24587,41.673746 71.273896,30.723464 54.57765,17.322176
    52.423302,16.178163 62.11999,8.3349512 47.757634,0 Z m 21.182372,36.935142 c
    -3.23154,0.326846 -6.282816,2.290268 -9.155302,7.193166 -3.590588,8.33495
    12.209402,22.716724 22.98117,5.06625 C 83.483996,47.069952 94.0755,53.93163
    100,39.386326 89.946316,49.845864 79.713166,37.425428 70.377642,36.935142 Z
    M 29.80469,37.099022 C 20.469164,37.58931 10.053647,50.173186 0,39.55021
    5.9244804,54.095512 16.51881,47.070414 17.416458,49.358438 28.0087,67.008916
    43.805884,52.627142 40.215296,44.292192 36.983772,38.73555 33.395278,36.9356
    29.80469,37.099026 Z m 21.003542,10.13249 c -8.25835,37.262136
    -23.51556,63.576958 -40.211787,82.534868 7.001653,-1.96117
    14.718613,-7.19213 22.258843,-11.93164 -4.667764,9.80582 -9.154602,18.14082
    -13.822364,26.80264 2.692942,-0.98059 11.489886,-9.64435 23.338826,-22.3919
    1.795296,17.48703 4.305204,25.8241 8.07532,37.75452 3.052012,-11.93042
    5.208468,-19.9411 7.54234,-37.9184 7.181178,8.00805 14.001888,16.17984
    23.696484,23.04393 L 68.221186,117.34659 c 7.001634,4.41265
    14.72282,10.29262 22.083522,12.74406 C 72.710832,110.15215
    57.989412,84.493648 50.808232,47.231516 Z" transform="translate(6.25,10) scale(0.0625,0.0625)" /></g></pattern><pattern height="20" id="erminois" patternUnits="userSpaceOnUse" width="12.5" x="-3.125" y="-5"><rect fill="#f2bc51" height="20" width="12.5" x="0" y="0" /><g fill="#333333"><path d="M 47.757634,0 C 60.324696,15.689314 25.136924,21.898666 44.167046,36.607392
    52.24587,41.673746 71.273896,30.723464 54.57765,17.322176
    52.423302,16.178163 62.11999,8.3349512 47.757634,0 Z m 21.182372,36.935142 c
    -3.23154,0.326846 -6.282816,2.290268 -9.155302,7.193166 -3.590588,8.33495
    12.209402,22.716724 22.98117,5.06625 C 83.483996,47.069952 94.0755,53.93163
    100,39.386326 89.946316,49.845864 79.713166,37.425428 70.377642,36.935142 Z
    M 29.80469,37.099022 C 20.469164,37.58931 10.053647,50.173186 0,39.55021
    5.9244804,54.095512 16.51881,47.070414 17.416458,49.358438 28.0087,67.008916
    43.805884,52.627142 40.215296,44.292192 36.983772,38.73555 33.395278,36.9356
    29.80469,37.099026 Z m 21.003542,10.13249 c -8.25835,37.262136
    -23.51556,63.576958 -40.211787,82.534868 7.001653,-1.96117
    14.718613,-7.19213 22.258843,-11.93164 -4.667764,9.80582 -9.154602,18.14082
    -13.822364,26.80264 2.692942,-0.98059 11.489886,-9.64435 23.338826,-22.3919
    1.795296,17.48703 4.305204,25.8241 8.07532,37.75452 3.052012,-11.93042
    5.208468,-19.9411 7.54234,-37.9184 7.181178,8.00805 14.001888,16.17984
    23.696484,23.04393 L 68.221186,117.34659 c 7.001634,4.41265
    14.72282,10.29262 22.083522,12.74406 C 72.710832,110.15215
    57.989412,84.493648 50.808232,47.231516 Z" transform="scale(0.0625,0.0625)" /><path d="M 47.757634,0 C 60.324696,15.689314 25.136924,21.898666 44.167046,36.607392
    52.24587,41.673746 71.273896,30.723464 54.57765,17.322176
    52.423302,16.178163 62.11999,8.3349512 47.757634,0 Z m 21.182372,36.935142 c
    -3.23154,0.326846 -6.282816,2.290268 -9.155302,7.193166 -3.590588,8.33495
    12.209402,22.716724 22.98117,5.06625 C 83.483996,47.069952 94.0755,53.93163
    100,39.386326 89.946316,49.845864 79.713166,37.425428 70.377642,36.935142 Z
    M 29.80469,37.099022 C 20.469164,37.58931 10.053647,50.173186 0,39.55021
    5.9244804,54.095512 16.51881,47.070414 17.416458,49.358438 28.0087,67.008916
    43.805884,52.627142 40.215296,44.292192 36.983772,38.73555 33.395278,36.9356
    29.80469,37.099026 Z m 21.003542,10.13249 c -8.25835,37.262136
    -23.51556,63.576958 -40.211787,82.534868 7.001653,-1.96117
    14.718613,-7.19213 22.258843,-11.93164 -4.667764,9.80582 -9.154602,18.14082
    -13.822364,26.80264 2.692942,-0.98059 11.489886,-9.64435 23.338826,-22.3919
    1.795296,17.48703 4.305204,25.8241 8.07532,37.75452 3.052012,-11.93042
    5.208468,-19.9411 7.54234,-37.9184 7.181178,8.00805 14.001888,16.17984
    23.696484,23.04393 L 68.221186,117.34659 c 7.001634,4.41265
    14.72282,10.29262 22.083522,12.74406 C 72.710832,110.15215
    57.989412,84.493648 50.808232,47.231516 Z" transform="translate(6.25,10) scale(0.0625,0.0625)" /></g></pattern><pattern height="20" id="pean" patternUnits="userSpaceOnUse" width="12.5" x="-3.125" y="-5"><rect fill="#333333" height="20" width="12.5" x="0" y="0" /><g fill="#f2bc51"><path d="M 47.757634,0 C 60.324696,15.689314 25.136924,21.898666 44.167046,36.607392
    52.24587,41.673746 71.273896,30.723464 54.57765,17.322176
    52.423302,16.178163 62.11999,8.3349512 47.757634,0 Z m 21.182372,36.935142 c
    -3.23154,0.326846 -6.282816,2.290268 -9.155302,7.193166 -3.590588,8.33495
    12.209402,22.716724 22.98117,5.06625 C 83.483996,47.069952 94.0755,53.93163
    100,39.386326 89.946316,49.845864 79.713166,37.425428 70.377642,36.935142 Z
    M 29.80469,37.099022 C 20.469164,37.58931 10.053647,50.173186 0,39.55021
    5.9244804,54.095512 16.51881,47.070414 17.416458,49.358438 28.0087,67.008916
    43.805884,52.627142 40.215296,44.292192 36.983772,38.73555 33.395278,36.9356
    29.80469,37.099026 Z m 21.003542,10.13249 c -8.25835,37.262136
    -23.51556,63.576958 -40.211787,82.534868 7.001653,-1.96117
    14.718613,-7.19213 22.258843,-11.93164 -4.667764,9.80582 -9.154602,18.14082
    -13.822364,26.80264 2.692942,-0.98059 11.489886,-9.64435 23.338826,-22.3919
    1.795296,17.48703 4.305204,25.8241 8.07532,37.75452 3.052012,-11.93042
    5.208468,-19.9411 7.54234,-37.9184 7.181178,8.00805 14.001888,16.17984
    23.696484,23.04393 L 68.221186,117.34659 c 7.001634,4.41265
    14.72282,10.29262 22.083522,12.74406 C 72.710832,110.15215
    57.989412,84.493648 50.808232,47.231516 Z" transform="scale(0.0625,0.0625)" /><path d="M 47.757634,0 C 60.324696,15.689314 25.136924,21.898666 44.167046,36.607392
    52.24587,41.673746 71.273896,30.723464 54.57765,17.322176
    52.423302,16.178163 62.11999,8.3349512 47.757634,0 Z m 21.182372,36.935142 c
    -3.23154,0.326846 -6.282816,2.290268 -9.155302,7.193166 -3.590588,8.33495
    12.209402,22.716724 22.98117,5.06625 C 83.483996,47.069952 94.0755,53.93163
    100,39.386326 89.946316,49.845864 79.713166,37.425428 70.377642,36.935142 Z
    M 29.80469,37.099022 C 20.469164,37.58931 10.053647,50.173186 0,39.55021
    5.9244804,54.095512 16.51881,47.070414 17.416458,49.358438 28.0087,67.008916
    43.805884,52.627142 40.215296,44.292192 36.983772,38.73555 33.395278,36.9356
    29.80469,37.099026 Z m 21.003542,10.13249 c -8.25835,37.262136
    -23.51556,63.576958 -40.211787,82.534868 7.001653,-1.96117
    14.718613,-7.19213 22.258843,-11.93164 -4.667764,9.80582 -9.154602,18.14082
    -13.822364,26.80264 2.692942,-0.98059 11.489886,-9.64435 23.338826,-22.3919
    1.795296,17.48703 4.305204,25.8241 8.07532,37.75452 3.052012,-11.93042
    5.208468,-19.9411 7.54234,-37.9184 7.181178,8.00805 14.001888,16.17984
    23.696484,23.04393 L 68.221186,117.34659 c 7.001634,4.41265
    14.72282,10.29262 22.083522,12.74406 C 72.710832,110.15215
    57.989412,84.493648 50.808232,47.231516 Z" transform="translate(6.25,10) scale(0.0625,0.0625)" /></g></pattern></defs><defs><clipPath id="mask_1"><path d="M0 0h100v120h-100z" fill="#fff" stroke="none" /></clipPath></defs><g clip-path="url(#mask_1)"><g><g><path d="M0 0h100v120h-100z" fill="#f0f0f0" /><g style="pointer-events:visiblePainted;cursor:pointer;"><g transform="translate(50,60)rotate(-50.1944289077348)"><defs><clipPath id="clip-0_4"><path d="M -78.10249675906655,-51.214751973158386 h156.2049935181331 L 1000,-51.214751973158386 1000,-1000 0,-1000 -1000,-1000 L -1000,-51.214751973158386 L -78.10249675906655,-51.214751973158386 z" fill="#fff" /><path d="M -78.10249675906655,-51.214751973158386 h156.2049935181331" fill="none" stroke-width="0.1" stroke="#fff" /></clipPath></defs><g clip-path="url(#clip-0_4)"><g><g style="pointer-events:visiblePainted;cursor:pointer;"><rect fill="#f6f6f6" height="1100" width="1100" x="-500" y="-500" /></g></g></g><defs><clipPath id="clip-1_6"><path d="M -78.10249675906655,-51.214751973158386 h156.2049935181331 L 1000,-51.214751973158386 L 1000,-25.60737598657919 L 78.09750324093343,-25.60737598657919 l-156.2 1.9128983002681657e-14 L -1000,-25.60737598657917 L -1000,-51.214751973158386 L -78.10249675906655,-51.214751973158386 z" fill="#fff" /><path d="M 78.09750324093343,-25.60737598657919 l-156.2 1.9128983002681657e-14" fill="none" stroke-width="0.1" stroke="#fff" /></clipPath></defs><g clip-path="url(#clip-1_6)"><g><g style="pointer-events:visiblePainted;cursor:pointer;"><rect fill="#0c6793" height="1100" width="1100" x="-500" y="-500" /></g></g></g><defs><clipPath id="clip-2_8"><path d="M 78.09750324093343,-25.607375986579193 l-156.2 1.9128983002681657e-14 L -1000,-25.607375986579175 L -1000,3.552713678800501e-15 L -78.10249675906655,3.552713678800501e-15 h156.2049935181331 L 1000,3.552713678800501e-15 L 1000,-25.607375986579193 L 78.09750324093343,-25.607375986579193" fill="#fff" /><path d="M -78.10249675906655,3.552713678800501e-15 h156.2049935181331" fill="none" stroke-width="0.1" stroke="#fff" /></clipPath></defs><g clip-path="url(#clip-2_8)"><g><g style="pointer-events:visiblePainted;cursor:pointer;"><rect fill="#f6f6f6" height="1100" width="1100" x="-500" y="-500" /></g></g></g><defs><clipPath id="clip-3_10"><path d="M -78.10249675906655,0 h156.2049935181331 L 1000,0 L 1000,25.607375986579196 L 78.09750324093343,25.607375986579196 l-156.2 1.9128983002681657e-14 L -1000,25.607375986579214 L -1000,0 L -78.10249675906655,0 z" fill="#fff" /><path d="M 78.09750324093343,25.607375986579196 l-156.2 1.9128983002681657e-14" fill="none" stroke-width="0.1" stroke="#fff" /></clipPath></defs><g clip-path="url(#clip-3_10)"><g><g style="pointer-events:visiblePainted;cursor:pointer;"><rect fill="#0c6793" height="1100" width="1100" x="-500" y="-500" /></g></g></g><defs><clipPath id="clip-4_12"><path d="M 78.09750324093343,25.6073759865792 l-156.2 1.9128983002681657e-14 L -1000,25.607375986579218 L -1000,51.2147519731584 L -78.10249675906655,51.2147519731584 h156.2049935181331 L 1000,51.2147519731584 L 1000,25.6073759865792 L 78.09750324093343,25.6073759865792" fill="#fff" /><path d="M -78.10249675906655,51.2147519731584 h156.2049935181331" fill="none" stroke-width="0.1" stroke="#fff" /></clipPath></defs><g clip-path="url(#clip-4_12)"><g><g style="pointer-events:visiblePainted;cursor:pointer;"><rect fill="#f6f6f6" height="1100" width="1100" x="-500" y="-500" /></g></g></g><defs><clipPath id="clip-5_14"><path d="M -78.10249675906655,51.214751973158386 h156.2049935181331 L 1000,51.214751973158386 1000,1000 0,1000 -1000,1000 L -1000,51.214751973158386 L -78.10249675906655,51.214751973158386 z" fill="#fff" /></clipPath></defs><g clip-path="url(#clip-5_14)"><g><g style="pointer-events:visiblePainted;cursor:pointer;"><rect fill="#0c6793" height="1100" width="1100" x="-500" y="-500" /></g></g></g><g fill="none" stroke-linecap="round" stroke-linejoin="round" stroke-width="0.5" stroke="#333333"><path d="M -78.10249675906655,-51.214751973158386 h156.2049935181331" /><path d="M 78.09750324093343,-25.60737598657919 l-156.2 1.9128983002681657e-14" /><path d="M -78.10249675906655,3.552713678800501e-15 h156.2049935181331" /><path d="M 78.09750324093343,25.607375986579196 l-156.2 1.9128983002681657e-14" /><path d="M -78.10249675906655,51.2147519731584 h156.2049935181331" /></g></g></g></g></g></g><g fill="none" stroke-linecap="round" stroke-linejoin="round" stroke-width="0.5" stroke="#333333"><path d="M0 0h100v120h-100z" /></g></g></g></svg>

<svg preserveAspectRatio="xMidYMin slice" viewBox="0 0 120 200" xmlns="http://www.w3.org/2000/svg"><g filter="url(#a)" transform="translate(10 10)"><defs><filter height="200%" id="a" width="200%" x="-20%" y="-20%"><feOffset dx=".2" dy=".2" in="SourceAlpha" result="offsetOut"/><feGaussianBlur in="offsetOut" result="blurOut"/><feBlend in2="blurOut" in="SourceGraphic"/></filter></defs><defs><clipPath id="b"><path d="M0 0h100v120H0z" fill="#fff"/></clipPath></defs><g clip-path="url(#b)"><path d="M0 0h100v120H0z" fill="#f0f0f0"/><g transform="rotate(-50.194 89.051 -23.376)" style="pointer-events:visiblePainted;cursor:pointer"><defs><clipPath id="c"><path d="M-78.102-51.215H1000V-1000h-2000v948.785h921.898z" fill="#fff"/><path d="M-78.102-51.215H78.102" fill="none" stroke-width=".1" stroke="#fff"/></clipPath></defs><g clip-path="url(#c)"><path fill="#f6f6f6" d="M-500-500H600V600H-500z" style="pointer-events:visiblePainted;cursor:pointer"/></g><defs><clipPath id="d"><path d="M-78.102-51.215H1000v25.608h-2000v-25.608h921.898z" fill="#fff"/><path d="M78.098-25.607h-156.2" fill="none" stroke-width=".1" stroke="#fff"/></clipPath></defs><g clip-path="url(#d)"><path fill="#0c6793" d="M-500-500H600V600H-500z" style="pointer-events:visiblePainted;cursor:pointer"/></g><defs><clipPath id="e"><path d="M78.098-25.607H-1000V0h2000v-25.607H78.098" fill="#fff"/><path d="M-78.102 0H78.102" fill="none" stroke-width=".1" stroke="#fff"/></clipPath></defs><g clip-path="url(#e)"><path fill="#f6f6f6" d="M-500-500H600V600H-500z" style="pointer-events:visiblePainted;cursor:pointer"/></g><defs><clipPath id="f"><path d="M-78.102 0H1000v25.607h-2000V0h921.898z" fill="#fff"/><path d="M78.098 25.607h-156.2" fill="none" stroke-width=".1" stroke="#fff"/></clipPath></defs><g clip-path="url(#f)"><path fill="#0c6793" d="M-500-500H600V600H-500z" style="pointer-events:visiblePainted;cursor:pointer"/></g><defs><clipPath id="g"><path d="M78.098 25.607H-1000v25.608h2000V25.607H78.098" fill="#fff"/><path d="M-78.102 51.215H78.102" fill="none" stroke-width=".1" stroke="#fff"/></clipPath></defs><g clip-path="url(#g)"><path fill="#f6f6f6" d="M-500-500H600V600H-500z" style="pointer-events:visiblePainted;cursor:pointer"/></g><defs><clipPath id="h"><path d="M-78.102 51.215H1000V1000h-2000V51.215h921.898z" fill="#fff"/></clipPath></defs><g clip-path="url(#h)"><path fill="#0c6793" d="M-500-500H600V600H-500z" style="pointer-events:visiblePainted;cursor:pointer"/></g><path d="M-78.102-51.215H78.102m-.004 25.608h-156.2m0 25.607H78.102m-.004 25.607h-156.2m0 25.608H78.102" fill="none" stroke-linecap="round" stroke-linejoin="round" stroke-width=".5" stroke="#333"/></g></g><path d="M0 0h100v120H0z" fill="none" stroke-linecap="round" stroke-linejoin="round" stroke-width=".5" stroke="#333"/></g></svg>
